svg/color/adx.svg

<svg height="32" width="32" xmlns="http://www.w3.org/2000/svg"><g fill="none" fill-rule="evenodd"><circle cx="16" cy="16" fill="#1b75bc" r="16"/><path d="m11.587 8.602 4.413 4.606 4.305-4.606 2.695 2.758-4.396 4.64 4.396 4.603-2.695 2.793-4.305-4.604-4.413 4.604-2.587-2.716 4.36-4.706-4.36-4.614 2.587-2.757zm.355-.376 4.04-4.226 4.04 4.226-2.126 2.265-1.914-2.114-1.914 2.114zm0 15.548 2.126-2.265 1.914 2.114 1.914-2.114 2.126 2.265-4.04 4.226z" fill="#fff"/></g></svg>

<svg xmlns="http://www.w3.org/2000/svg" width="32" height="32"><g fill="none" fill-rule="evenodd"><circle cx="16" cy="16" r="16" fill="#1B75BC"/><path fill="#FFF" d="M11.587 8.602L16 13.208l4.305-4.606L23 11.36l-4.396 4.64L23 20.603l-2.695 2.793L16 18.792l-4.413 4.604L9 20.68l4.36-4.706L9 11.36l2.587-2.757zm.355-.376L15.982 4l4.04 4.226-2.126 2.265-1.914-2.114-1.914 2.114-2.126-2.265zm0 15.548l2.126-2.265 1.914 2.114 1.914-2.114 2.126 2.265L15.982 28l-4.04-4.226z"/></g></svg>
